svg/food.svg

<?xml version="1.0" encoding="UTF-8"?><!DOCTYPE svg PUBLIC "-//W3C//DTD SVG 1.1//EN" "http://www.w3.org/Graphics/SVG/1.1/DTD/svg11.dtd"><svg xmlns="http://www.w3.org/2000/svg" xmlns:xlink="http://www.w3.org/1999/xlink" version="1.1" id="mdi-food" width="24" height="24" viewBox="0 0 24 24"><path d="M15.5,21L14,8H16.23L15.1,3.46L16.84,3L18.09,8H22L20.5,21H15.5M5,11H10A3,3 0 0,1 13,14H2A3,3 0 0,1 5,11M13,18A3,3 0 0,1 10,21H5A3,3 0 0,1 2,18H13M3,15H8L9.5,16.5L11,15H12A1,1 0 0,1 13,16A1,1 0 0,1 12,17H3A1,1 0 0,1 2,16A1,1 0 0,1 3,15Z" /></svg>

<svg xmlns="http://www.w3.org/2000/svg" viewBox="0 0 24 24"><path d="M15.5 21 14 8h2.23L15.1 3.46 16.84 3l1.25 5H22l-1.5 13zM5 11h5a3 3 0 0 1 3 3H2a3 3 0 0 1 3-3m8 7a3 3 0 0 1-3 3H5a3 3 0 0 1-3-3zM3 15h5l1.5 1.5L11 15h1a1 1 0 0 1 1 1 1 1 0 0 1-1 1H3a1 1 0 0 1-1-1 1 1 0 0 1 1-1"/></svg>
